X: 192
T: No_50_Cow_Creek_Hunting_Dance_Song_(q).krn
N: Derived from No_50_Cow_Creek_Hunting_Dance_Song_(q).krn
%%abc-version 2.0
%%abcx-abcm2ps-target-version 5.9.1 (29 Sep 2008)
%%abc-creator hum2abc beta
%%abcx-conversion-date 2019/03/15 08:38:45
%%humdrum-veritas 2158019026
%%humdrum-veritas-data 2675574214
%%linebreak <none>
%%barnumbers 0
L: 1/8
M: 2/4
K: F clef=bass
[K:clef=bass][M:2/4]A,2F,2 [I:setbarnb 2]| 
F,2A,2 | 
A,4 ||  
[M:3/4]CA,/A,/A,4 ||  
[M:2/4]A,G, F, z | 
C2A,2 | 
A,G, A,G, | 
F,4 ||  
[M:3/4]A,F,/F,/F,4 ||  
[M:2/4]F,4 | 
F,2C,2 | 
C, zE,2 | 
F,4 ||  
[M:3/4]A,F,/F,/F,4 ||  
[M:2/4]F,4 :|]  



